icons/file-settings-fill.svg

<svg xmlns="http://www.w3.org/2000/svg" width="24" height="24" fill="none"><g clip-path="url(#a)"><g><path fill="#121212" d="M16 2L21 7V21.008C20.9997 21.2712 20.895 21.5235 20.7088 21.7095C20.5226 21.8955 20.2702 22 20.007 22H3.993C3.73038 21.9982 3.47902 21.8931 3.29322 21.7075C3.10742 21.5219 3.00209 21.2706 3 21.008V2.992C3 2.444 3.445 2 3.993 2H16ZM8.595 12.812L7.603 13.384L8.603 15.116L9.595 14.543C9.988 14.915 10.468 15.197 11 15.355V16.5H13V15.355C13.5255 15.1983 14.0068 14.9201 14.405 14.543L15.397 15.116L16.397 13.384L15.405 12.811C15.5316 12.2777 15.5316 11.7223 15.405 11.189L16.397 10.616L15.397 8.884L14.405 9.457C14.0068 9.07988 13.5255 8.80172 13 8.645V7.5H11V8.645C10.4745 8.80172 9.99316 9.07988 9.595 9.457L8.603 8.884L7.603 10.616L8.595 11.189C8.46821 11.7226 8.46821 12.2784 8.595 12.812ZM12 13.5C11.6022 13.5 11.2206 13.342 10.9393 13.0607C10.658 12.7794 10.5 12.3978 10.5 12C10.5 11.6022 10.658 11.2206 10.9393 10.9393C11.2206 10.658 11.6022 10.5 12 10.5C12.3978 10.5 12.7794 10.658 13.0607 10.9393C13.342 11.2206 13.5 11.6022 13.5 12C13.5 12.3978 13.342 12.7794 13.0607 13.0607C12.7794 13.342 12.3978 13.5 12 13.5Z"/></g></g><defs><clipPath id="a"><rect width="24" height="24" fill="white"/></clipPath></defs></svg>

<svg width="24" height="24" fill="none" xmlns="http://www.w3.org/2000/svg"><g clip-path="url(#a)"><path d="m16 2 5 5v14.008a.993.993 0 0 1-.993.992H3.993A1 1 0 0 1 3 21.008V2.992C3 2.444 3.445 2 3.993 2H16ZM8.595 12.812l-.992.572 1 1.732.992-.573c.393.372.873.654 1.405.812V16.5h2v-1.145a3.497 3.497 0 0 0 1.405-.812l.992.573 1-1.732-.992-.573a3.511 3.511 0 0 0 0-1.622l.992-.573-1-1.732-.992.573A3.497 3.497 0 0 0 13 8.645V7.5h-2v1.145a3.496 3.496 0 0 0-1.405.812l-.992-.573-1 1.732.992.573a3.51 3.51 0 0 0 0 1.623ZM12 13.5a1.5 1.5 0 1 1 0-3 1.5 1.5 0 0 1 0 3Z" /></g><defs><clipPath id="a"><path fill="#fff" d="M0 0h24v24H0z"/></clipPath></defs></svg>
